X:130
T: Nachtigall
N: A0157
O: Europa, Mitteleuropa, Deutschland
N: Forster I. 1539 No. 47.
R: Romanze, Ballade, Lied
M: 4/2
L: 1/4
K: F
F2 | F2G2A2B2 | c4A2
A2 | d4c2B2 | c4A2
A2 | d2d2c2A2 | cBAGF2z2 | z2
F2F2A2 | G2F2E2E2 | D4z2
E2 | F3FF2E2 | D4C4 | z2
F2F2F2 | F2E2F3E | D2
C2F2A2 | G4z2
F2 | F3ED2C2 | G2G2G2G2 | F6

